/* XPM */
static char *_af0d100769a4d9985f15e5ff097b225ERJpDMo8xz8n20b8[] = {
/* columns rows colors chars-per-pixel */
"64 64 17 1 ",
"  c None",
". c #101010",
"X c #151515",
"o c #161616",
"O c gray11",
"+ c gray16",
"@ c #2C2C2C",
"# c #373737",
"$ c #4C3325",
"% c #664432",
"& c #2E3A47",
"* c #3E4E5F",
"= c gray27",
"- c #5C758F",
"; c #7B9CBE",
": c #FFBD99",
"> c #FFDECC",
/* pixels */
"                                                                ",
"                                                                ",
"                                                                ",
"                                                                ",
"                                                                ",
"                                                                ",
"                                                                ",
"                                                                ",
"                                                                ",
"                                                                ",
"                                                                ",
"                                                                ",
"                                                                ",
"                        OOOOOOOOOOOOOOO                         ",
"                        OOOOOOOOOOOOOOO                         ",
"                        OOOOOOOOOOOOOOO                         ",
"         OOOOOOOOOOOOOOO######======###OOO                      ",
"         OOOOOOOOOOOOOOO######======###OOO                      ",
"         OOOOOOOOOOOOOOO######======###OOO                      ",
"         OOO============###============###XXX                   ",
"         OOO============###============###XXX                   ",
"         OOO============###============###XXX                   ",
"            OOO###############======######+++XXX                ",
"            OOO###############======######+++XXX                ",
"            OOO###############======######+++XXX                ",
"               XXX+++++++++############++++++XXX                ",
"               XXX+++++++++############++++++XXX                ",
"               XXX+++++++++############++++++XXX                ",
"                  XXX++++++++++++++++++++++++XXX                ",
"                  XXX++++++++++++++++++++++++XXX                ",
"                  XXX++++++++++++++++++++++++XXX                ",
"                     XXX++++++++++++++++++XXX                   ",
"                     XXX++++++++++++++++++XXX                   ",
"                     XXX++++++++++++++++++XXX                   ",
"                        XXX++++++++++++XXX                      ",
"                        XXX++++++++++++XXX                      ",
"                        XXX++++++++++++XXX                      ",
"                     &&&---XXXXXXXXXXXX---&&&                   ",
"                     &&&---XXXXXXXXXXXX---&&&                   ",
"                     &&&---XXXXXXXXXXXX---&&&                   ",
"                  &&&------------------;;;---&&&                ",
"                  &&&------------------;;;---&&&                ",
"                  &&&------------------;;;---&&&                ",
"                  $$$---;;;;;;;;;;;;***;;;:::%%%                ",
"                  $$$---;;;;;;;;;;;;***;;;:::%%%                ",
"                  $$$---;;;;;;;;;;;;***;;;:::%%%                ",
"                  $$$***;;;;;;;;;;;;%%%:::>>>%%%                ",
"                  $$$***;;;;;;;;;;;;%%%:::>>>%%%                ",
"                  $$$***;;;;;;;;;;;;%%%:::>>>%%%                ",
"                     ooo############@@@%%%%%%                   ",
"                     ooo############@@@%%%%%%                   ",
"                     ooo############@@@%%%%%%                   ",
"                     ooo######@@@@@@@@@...                      ",
"                     ooo######@@@@@@@@@...                      ",
"                     ooo######@@@@@@@@@...                      ",
"                     ...@@@@@@oooXXX...                         ",
"                     ...@@@@@@oooooo...                         ",
"                     ...@@@@@@oooooo...                         ",
"                        ......                                  ",
"                        ......                                  ",
"                        ......                                  ",
"                                                                ",
"                                                                ",
"                                                                "
};
