/* XPM */
static char *_64e7fa1c8814cf1f5347c0474b270ee3P88AssFQJvDBNyn[] = {
/* columns rows colors chars-per-pixel */
"64 64 16 1 ",
"  c None",
". c #101010",
"X c #151515",
"o c #161616",
"O c gray11",
"+ c gray16",
"@ c #2C2C2C",
"# c #373737",
"$ c #664432",
"% c #2E3A47",
"& c #3E4E5F",
"* c gray27",
"= c #5C758F",
"- c #7B9CBE",
"; c #FFBD99",
": c #FFDECC",
/* pixels */
"                                                                ",
"                                                                ",
"                                                                ",
"                                                                ",
"                                                                ",
"                                                                ",
"                                                                ",
"                                                                ",
"                                                                ",
"                                                                ",
"                                                                ",
"                                                                ",
"                                                                ",
"                       OOOOOOOOOOOOOOO                          ",
"                       OOOOOOOOOOOOOOO                          ",
"                       OOOOOOOOOOOOOOO                          ",
"        OOOOOOOOOOOOOOO######******###OOO                       ",
"        OOOOOOOOOOOOOOO######******###OOO                       ",
"        OOOOOOOOOOOOOOO######******###OOO                       ",
"        OOO************###************###XXX                    ",
"        OOO************###************###XXX                    ",
"        OOO************###************###XXX                    ",
"           OOO###############******######+++XXX                 ",
"           OOO###############******######+++XXX                 ",
"           OOO###############******######+++XXX                 ",
"              XXX+++++++++############++++++XXX                 ",
"              XXX+++++++++############++++++XXX                 ",
"              XXX+++++++++############++++++XXX                 ",
"                 XXX++++++++++++++++++++++++XXX                 ",
"                 XXX++++++++++++++++++++++++XXX                 ",
"                 XXX++++++++++++++++++++++++XXX                 ",
"                    XXX++++++++++++++++++XXX                    ",
"                    XXX++++++++++++++++++XXX                    ",
"                    XXX++++++++++++++++++XXX                    ",
"                       XXX++++++++++++XXX                       ",
"                       XXX++++++++++++XXX                       ",
"                       XXX++++++++++++XXX                       ",
"                    %%%===XXXXXXXXXXXX===%%%                    ",
"                    %%%===XXXXXXXXXXXX===%%%                    ",
"                    %%%===XXXXXXXXXXXX===%%%                    ",
"                 %%%===---==================%%%                 ",
"                 %%%===---==================%%%                 ",
"                 %%%===---==================%%%                 ",
"                 $$$;;;---&&&------------===%%%                 ",
"                 $$$;;;---&&&------------===%%%                 ",
"                 $$$;;;---&&&------------===%%%                 ",
"                 $$$:::;;;$$$------------&&&%%%                 ",
"                 $$$:::;;;$$$------------&&&%%%                 ",
"                 $$$:::;;;$$$------------&&&%%%                 ",
"                    $$$$$$@@@############ooo                    ",
"                    $$$$$$@@@############oXo                    ",
"                    $$$$$$@@@############oXX                    ",
"                       ...@@@@@@@@@######ooo                    ",
"                       ...@@@@@@@@@######ooo                    ",
"                       ...@@@@@@@@@######ooo                    ",
"                          ...oooooo@@@@@@...                    ",
"                          ...oooooo@@@@@@...                    ",
"                          ...oooooo@@@@@@...                    ",
"                                   ......                       ",
"                                   ......                       ",
"                                   ......                       ",
"                                                                ",
"                                                                ",
"                                                                "
};
