/* XPM */
static char *result[] = {
/* columns rows colors chars-per-pixel */
"64 64 11 1 ",
"  c #141412",
". c #191C1E",
"X c #281818",
"o c #332520",
"O c #2B3037",
"+ c #343C45",
"@ c #394554",
"# c #56687E",
"$ c #607897",
"% c #7998BF",
"& c None",
/* pixels */
"&&&&&&&&&&&&&&&&&&&&&&&&&&&&&&&&&&&&&&&&&&&&&&&&&&&&&&&&&&&&&&&&",
"&&&&&&&&&&&&&&&&&&&&&&&&&&&&&&&&&&&&&&&&&&&&&&&&&&&&&&&&&&&&&&&&",
"&&&&&&&&&&&&&&&&&&&&&&&&&&&&&&&&&&&&&&&&&&&&&&&&&&&&&&&&&&&&&&&&",
"&&&&&&&&&&&&&&&&&&&&&&&&&&&&&&&&&&&&&&&&&&&&&&&&&&&&&&&&&&&&&&&&",
"&&&&&&&&&&&&&&&&&&&&&&&&&&&&&&&&&&&&&&&&&&&&&&&&&&&&&&&&&&&&&&&&",
"&&&&&&&&&&&&&&&&&&&&&&&&&&&&&&&&&&&&&&&&&&&&&&&&&&&&&&&&&&&&&&&&",
"&&&&&&&&&&&&&&&&&&&&&&&&&&&&&&&&&&&&&&&&&&&&&&&&&&&&&&&&&&&&&&&&",
"&&&&&&&&&&&&&&&&....Xooo.ooo.oo..oo.ooo.oooX....&&&&&&&&&&&&&&&&",
"&&&&&&&&&&&&&&&&................................&&&&&&&&&&&&&&&&",
"&&&&&&&&&&&&&&&&                                &&&&&&&&&&&&&&&&",
"&&&&&&&&&&&&&&&&                                &&&&&&&&&&&&&&&&",
"&&&&&&&&&&&&&&&&           $%%%%%%%%$           &&&&&&&&&&&&&&&&",
"&&&&&&&&&&&&&&&&         %%%%%%%%%%%%%%         &&&&&&&&&&&&&&&&",
"&&&&&&&&&&&&&&&&       %%%%$@OOOOOO@$%%%%       &&&&&&&&&&&&&&&&",
"&&&&&&&&&&&&&&&&      %%%$@OOOOOOOOOO@$%%%      &&&&&&&&&&&&&&&&",
"&&&&&&&&&&&&&&&&.....$%%@OOOOO....OOOOO@%%$.... &&&&&&&&&&&&&&&&",
"&&&&&&&&&&&&&&&&....$$$@OOO.        .OOO@$$$... &&&&&&&&&&&&&&&&",
"&&&&&&&&&&&&&&&&...$$$@OO.            .OO@$$$.. &&&&&&&&&&&&&&&&",
"&&&&&&&&&&&&&&&&..@$$@OO.              .OO@$$@. &&&&&&&&&&&&&&&&",
"&&&&&&&&&&&&&&&&  $$$OO                  OO$$$  &&&&&&&&&&&&&&&&",
"&&&&&&&&&&&&&&&&$$$$OO.                  .OO$$$$&&&&&&&&&&&&&&&&",
"&&&&&&&&&&&&&&&&$$$$O.                    .O$$$$&&&&&&&&&&&&&&&&",
"&&&&&&&&&&&&&&&&@@@@O                      O@@@@&&&&&&&&&&&&&&&&",
"&&&&&&&&&&&&&&&&@@@@.                      .@@@@&&&&&&&&&&&&&&&&",
"&&&&&&&&&&&&&&&&OOOO                        OOOO&&&&&&&&&&&&&&&&",
"&&&&&&&&&&&&&&&&                                &&&&&&&&&&&&&&&&",
"&&&&&&&&&&&&&&&&++..                        ..++&&&&&&&&&&&&&&&&",
"&&&&&&&&&&&&&&&&++..                        ..++&&&&&&&&&&&&&&&&",
"&&&&&&&&&&&&&&&&@@..                        ..@@&&&&&&&&&&&&&&&&",
"&&&&&&&&&&&&&&&&##..                        ..##&&&&&&&&&&&&&&&&",
"&&&&&&&&&&&&&&&&##..                        ..##&&&&&&&&&&&&&&&&",
"&&&&&&&&&&&&&&&&##..                        ..##&&&&&&&&&&&&&&&&",
"&&&&&&&&&&&&&&&&##..                        ..##&&&&&&&&&&&&&&&&",
"&&&&&&&&&&&&&&&&##..                        ..##&&&&&&&&&&&&&&&&",
"&&&&&&&&&&&&&&&&##..                        ..##&&&&&&&&&&&&&&&&",
"&&&&&&&&&&&&&&&&##..                        ..##&&&&&&&&&&&&&&&&",
"&&&&&&&&&&&&&&&&@@..                        ..@@&&&&&&&&&&&&&&&&",
"&&&&&&&&&&&&&&&&##..                        ..##&&&&&&&&&&&&&&&&",
"&&&&&&&&&&&&&&&&@@..                        ..@@&&&&&&&&&&&&&&&&",
"&&&&&&&&&&&&&&&&##..                        ..##&&&&&&&&&&&&&&&&",
"&&&&&&&&&&&&&&&&@@..                        ..@@&&&&&&&&&&&&&&&&",
"&&&&&&&&&&&&&&&&@@..                        ..@@&&&&&&&&&&&&&&&&",
"&&&&&&&&&&&&&&&&@@..                        ..@@&&&&&&&&&&&&&&&&",
"&&&&&&&&&&&&&&&&@@..                        ..@@&&&&&&&&&&&&&&&&",
"&&&&&&&&&&&&&&&&@@..                        ..@@&&&&&&&&&&&&&&&&",
"&&&&&&&&&&&&&&&&@@..                        ..@@&&&&&&&&&&&&&&&&",
"&&&&&&&&&&&&&&&&@@..                        ..@@&&&&&&&&&&&&&&&&",
"&&&&&&&&&&&&&&&&@@..                        ..@@&&&&&&&&&&&&&&&&",
"&&&&&&&&&&&&&&&&@@..                        ..@@&&&&&&&&&&&&&&&&",
"&&&&&&&&&&&&&&&&@@..                        ..@@&&&&&&&&&&&&&&&&",
"&&&&&&&&&&&&&&&&@@..                        ..@@&&&&&&&&&&&&&&&&",
"&&&&&&&&&&&&&&&&@@..                        ..@@&&&&&&&&&&&&&&&&",
"&&&&&&&&&&&&&&&&@@..                        ..@@&&&&&&&&&&&&&&&&",
"&&&&&&&&&&&&&&&&@@..                        ..@@&&&&&&&&&&&&&&&&",
"&&&&&&&&&&&&&&&&@@..                        ..@@&&&&&&&&&&&&&&&&",
"&&&&&&&&&&&&&&&&....                        ....&&&&&&&&&&&&&&&&",
"&&&&&&&&&&&&&&&&....                        ....&&&&&&&&&&&&&&&&",
"&&&&&&&&&&&&&&&&&&&&&&&&&&&&&&&&&&&&&&&&&&&&&&&&&&&&&&&&&&&&&&&&",
"&&&&&&&&&&&&&&&&&&&&&&&&&&&&&&&&&&&&&&&&&&&&&&&&&&&&&&&&&&&&&&&&",
"&&&&&&&&&&&&&&&&&&&&&&&&&&&&&&&&&&&&&&&&&&&&&&&&&&&&&&&&&&&&&&&&",
"&&&&&&&&&&&&&&&&&&&&&&&&&&&&&&&&&&&&&&&&&&&&&&&&&&&&&&&&&&&&&&&&",
"&&&&&&&&&&&&&&&&&&&&&&&&&&&&&&&&&&&&&&&&&&&&&&&&&&&&&&&&&&&&&&&&",
"&&&&&&&&&&&&&&&&&&&&&&&&&&&&&&&&&&&&&&&&&&&&&&&&&&&&&&&&&&&&&&&&",
"&&&&&&&&&&&&&&&&&&&&&&&&&&&&&&&&&&&&&&&&&&&&&&&&&&&&&&&&&&&&&&&&"
};
