/* XPM */
static char *_4bfbf7ecd2d4147b2faadaf13771e6dt4Qne0kW5XcnZ0sW[] = {
/* columns rows colors chars-per-pixel */
"64 64 32 1 ",
"  c None",
". c #151C23",
"X c #151D24",
"o c #161E25",
"O c #171E26",
"+ c #182028",
"@ c #18212A",
"# c #19222B",
"$ c #19232C",
"% c #1B252E",
"& c #1B2631",
"* c #1E2B32",
"= c #1F2C33",
"- c #1E2935",
"; c #1F2C38",
": c #202C39",
"> c #202D3A",
", c #212F3C",
"< c #22303E",
"1 c #23313F",
"2 c #243440",
"3 c #243441",
"4 c #253640",
"5 c #263744",
"6 c #2B3F4A",
"7 c #2D434B",
"8 c #2E454E",
"9 c #2F474E",
"0 c #314A52",
"q c #334E55",
"w c #345056",
"e c #355157",
/* pixels */
"                                                                ",
"                                                                ",
"...................O........................o...................",
"...o#%*=========:::,===========-========--;;*:*:=======-===*%#o.",
"...#-1799999999900060606999999999999999906080006999999999997<-+.",
"...#>570qeeeeeeeeeeeeeeeeeeeeeeeeeeeeeeeeeeeeeeeeeeeeeeeew075>#.",
"...#>117qeeeeqeeeeeeeeeeeqeeeeeeeeeeeqeeeeeeeeeeeqeeeeeeeq7<<;@.",
"...#><<5888898996060606699988888888898990606066699988888975<;&+.",
"..O@><>33333322333333333333333333333333333333333333333333<<;%o..",
"...@:<<<,,;2233:<<<<<<<<<<<<<<<<,22,<<<<<<<<<<<<<<<<3>3><<;&@...",
"...@:<<<2,2,>3:3<<<<<<<<<<<<<<<<22,2<<<<<<<<<<<<<<>3>3>3<>%o....",
"...@:<<<,2,23>3:<<<<<<<<<<<<<<<<:;2,<<<<<<<<<<<<<<3>3>3:<;%.....",
"...@:<<<<<<<>3>3<<<<<<<<<<<<<<<<2:3>3><<<<<<<<<<<<<<:2:33;@X....",
"...@:<<<<<<<3>3><<<<<<<<<<<<<<<<:3>3>3<<<<<<<<<<<<<<223:,;$X....",
"...@:<<<<<<<<<>3<<<<<<<<<<<<<<<<3>3>3<<<<<<<<<<<<<<<2;2,<;@X....",
"..O#:<<<<<<<<<3><<<<<<<<<<<<<<<<>3>3<<<<<<<<<<<<<<<<,2,3,,%.....",
"...@:3:3<<<<<<<<<<<<<<<<<<<<<<<<<<<<<<<<<<<<<<<<<<<<<<<<<>$.....",
"..O@:33:<<<<<<<<<<<<<<<<<<<<<<<<<<<<<<<<<<<<<<<<<<<<<<<<<>$.....",
"...@:<<<<<<<<<<<<<<<<<<<<<<<<<<<<<<<<<<<<<<<<<<<<<<<<<<<<>@.....",
"...@:<<<<<<<<<<<<<<<<<<<<<<<<<<<<<<<<<<<<<<<<<<<<<<<<<<<<>$.....",
"..O@:<<<<<<<<<<<<<<<<<<<<<<<<<<<<<<<<<<<<<<<<<<<<<<<<<<<<>$.....",
"...@:<<<<<<<<<<<<<<<<<<<<<<<<<<<<<<<<<<<<<<<<<<<<<<<<<<<<>$.....",
"...@:<<<<<<<<<<<<<<<<<<<<<<<<<<<<<<<<<<<<<<<<<<<<<<<<<<<<>$.....",
"...@:<<<<<<<<<<<<<<<<<<<<<<<<<<<<<<<<<<<<<<<<<<<<<<<<<<<<>$.....",
"...@:<<<<<<<<<<<<<<<<<<<<<<<<<<<<<<<<<<<<<<<<<<<<<<<<<<<<>$.....",
"...@:<<<<<<<<<<<<<<<<<<<<<<<<<<<<<<<<<<<<<<<<<<<<<<<<<<<<>$.....",
"...@:<<<<<<<<<<<<<<<<<<<<<<<<<<<<<<<<<<<<<<<<<<<<<<<<<<<<>$.....",
"..O@:<<<<<<<<<<<<<<<<<<<<<<<<<<<<<<<<<<<<<<<<<<<<<<<<<<<<>$.....",
"...@:3<<<<<<<<<<<<<<<<<<<<<<<<<<<<<<<<<<<<<<<<<<<<<<<<<<<>$.....",
"..O#:<<<<<<<<<<<<<<<<<<<<<<<<<<<<<<<<<<<<<<<<<<<<<<<<<<<<>$.....",
"...@:<<<<<<<<<<<<<<<<<<<<<<<<<<<<<<<<<<<<<<<<<<<<<<<<<<<<>$.....",
"...@:<<<<<<<<<<<<<<<<<<<<<<<<<<<<<<<<<<<<<<<<<<<<<<<<<<<<>$.....",
"..O$:<<<<<<<<<<<<<<<<<<<<<<<<<<<<<<<<<<<<<<<<<<<<<<<<<<<<>$.....",
"...@:<<<<<<<<<<<<<<<<<<<<<<<<<<<<<<<<<<<<<<<<<<<<<<<<<<<<>$.....",
"...@:<<<<<<<<<<<<<<<<<<<<<<<<<<<<<<<<<<<<<<<<<<<<<<<<<<<<>$.....",
"...@:<<<<<<<<<<<<<<<<<<<<<<<<<<<<<<<<<<<<<<<<<<<<<<<<<<<<>$.....",
"...@:<<<<<<<<<<<<<<<<<<<<<<<<<<<<<<<<<<<<<<<<<<<<<<<<<<<<>$.....",
"..O@:<<<<<<<<<<<<<<<<<<<<<<<<<<<<<<<<<<<<<<<<<<<<<<<<<<<<>$.....",
"...@:<<<<<<<<<<<<<<<<<<<<<<<<<<<<<<<<<<<<<<<<<<<<<<<<<<<<>$.....",
"..O@><<<<<<<<<<<<<<<<<<<<<<<<<<<<<<<<<<<<<<<<<<<<<<<<<<<<>$.....",
"...@:3>3<<<<<<<<<<<<<<<<<<<<<<<<<<<<<<<<<<<<<<<<<<<<<<<<<>$.....",
"..O@:33><<<<<<<<<<<<<<<<<<<<<<<<<<<<<<<<<<<<<<<<<<<<<<<<<>$.....",
"...@:3>3<<<<<<<<<<<<<<<<<<<<<<<<<<<<<<<<<<<<<<<<<<<<<<<<<>$.....",
"...@:>3><<<<<<<<<<<<<<<<<<<<<<<<<<<<<<<<<<<<<<<<<<<<<<<<<>$.....",
"..O@:3><<<<<<<<<<<<<<<<<<<<<<<<<<<<<<<<<<<<<<<<<<<<<<<<<<>$.....",
"...@:><<<<<<<<<<<<<<<<<<<<<<<<<<<<<<<<<<<<<<<<<<<<<<<<<<<>$.....",
"...@:<<<<<<<<<<<<<<<<<<<<<<<<<<<<<<<<<<<<<<<<<<<<<<<<<<<<>$.....",
"...@:<<<<<<<<<<<<<<<<<<<<<<<<<<<<<<<<<<<<<<<<<<<<<<<<<<<<>$.....",
"...@:<<<<<<<<<<<<<<<<<<<<<<<<<<<<<<<<<<<<<<<<<<<<<<<<<<<<>$.....",
"..O@:<<<<<<<<<<<<<<<<<<<<<<<<<<<<<<<<<<<<<<<<<<<<<<<<<<<<>$.....",
"...@:<<<<<<<<<<<<<<<<<<<<<<<<<<<<<<<<<<<<<<<<<<<<<<<<<<<<>$.....",
"..O@:<<<<<<<<<<<<<<<<<<<<<<<<<<<<<<<<<<<<<<<<<<<<<<<<<<<<>$.....",
"...@:3<<<<<<<<<<<<<<<<<<<<<<<<<<<<<<<<<<<<<<<<<<<<<<<<<<<>$.....",
"..O@:<<<<<<<<<<<<<<<<<<<<<<<<<<<<<<<<<<<<<<<<<<<<<<<<<<<<>$.....",
"...@:<<<<<<<<<<<<<<<<<<<<<<<<<<<<<<<<<<<<<<<<<<<<<<<<<<<<>$.....",
"...@:<<<<<<<<<<<<<<<<<<<<<<<<<<<<<<<<<<<<<<<<<<<<<<<<<<<<>$.....",
"..O#:3<<<<33><<<<<<<<<<<<<<<<<<<<<<<<<<<<<<<<<<<<<<<<<<3<>$.....",
"...@:>>>>>>>>>>>>>>>>>>>>>>>>>>>>>>>>>>>>>>>>>>>>>>>>>>>>-@.....",
"...@::#&@@#@#@@@$$$$$$$$$$$$$$$$$$$$$$$$$$$$$$$$$$$$@$$$$@O.....",
"...@&&O...O.O..O................................................",
"...O@OO.........................................................",
"................................................................",
"................................................................",
"................................................................"
};
