/* XPM */
static char *ccd8ae569bfe4d97ff753d4f0d2d96c4OukZZqq3cN3ANamO[] = {
/* columns rows colors chars-per-pixel */
"64 64 20 1 ",
"  c None",
". c #373737",
"X c gray11",
"o c #FFBD99",
"O c gray27",
"+ c #5C758F",
"@ c #7B9CBE",
"# c #4C3325",
"$ c gray16",
"% c #E59A72",
"& c #151515",
"* c #2C2C2C",
"= c #101010",
"- c #664432",
"; c black",
": c #2E3A47",
"> c #161616",
", c #FDE415",
"< c #3E4E5F",
"1 c #FFDECC",
/* pixels */
"                                                                ",
"                                                                ",
"                                                                ",
"                                                                ",
"                                                                ",
"                                                                ",
"                                                                ",
"                         XXXXXXXXXXXXXXX                        ",
"                         XXXXXXXXXXXXXXX                        ",
"                         XXXXXXXXXXXXXXX                        ",
"                      XXX...OOOOOO......XXXXXXXXXXXXXXX         ",
"                      XXX...OOOOOO......XXXXXXXXXXXXXXX         ",
"                      XXX...OOOOOO......XXXXXXXXXXXXXXX         ",
"                   &&&...OOOOOOOOOOOO...OOOOOOOOOOOOXXX         ",
"                   &&&...OOOOOOOOOOOO...OOOOOOOOOOOOXXX         ",
"                   &&&...OOOOOOOOOOOO...OOOOOOOOOOOOXXX         ",
"                &&&$$$......OOOOOO...............XXX            ",
"                &&&$$$......OOOOOO...............XXX            ",
"                &&&$$$......OOOOOO...............XXX            ",
"                &&&$$$$$$oooooooooooo$$$$$$$$$&&&               ",
"                &&&$$$$$$oooooooooooo$$$$$$$$$&&&               ",
"                &&&$$$$$$oooooooooooo$$$$$$$$$&&&               ",
"                &&&$$$ooo;;;oooooo;;;ooo$$$&&&                  ",
"                &&&$$$ooo;;;oooooo;;;ooo$$$&&&                  ",
"                &&&$$$ooo;;;oooooo;;;ooo$$$&&&                  ",
"                   ###%%%;;;oooooo;;;%%%###                     ",
"                   ###%%%;;;oooooo;;;%%%###                     ",
"                   ###%%%;;;oooooo;;;%%%###                     ",
"                      ###%%%%%%%%%%%%###                        ",
"                      ###%%%%%%%%%%%%###                        ",
"                      ###%%%%%%%%%%%%###                        ",
"                   :::+++############+++:::                     ",
"                   :::+++############+++:::                     ",
"                   :::+++############+++:::                     ",
"                :::++++++++++++++++++@@@+++:::                  ",
"                :::++++++++++++++++++@@@+++:::                  ",
"                :::++++++++++++++++++@@@+++:::                  ",
"                ###+++@@@@@@@@@@@@<<<@@@ooo---                  ",
"                ###+++@@@@@@@@@@@@<<<@@@ooo---                  ",
"                ###+++@@@@@@@@@@@@<<<@@@ooo---                  ",
"                ###<<<@@@@@@@@@@@@---ooo111---                  ",
"                ###<<<@@@@@@@@@@@@---ooo111---                  ",
"                ###<<<@@@@@@@@@@@@---ooo111---                  ",
"                   >>>......,,,,,,***------                     ",
"                   >>>......,,,,,,***------                     ",
"                   >>>......,,,,,,***------                     ",
"                   >>>......*********===                        ",
"                   >>>......*********===                        ",
"                   >>>......*********===                        ",
"                   ===******>>>>>>===                           ",
"                   ===******>>>>>>===                           ",
"                   ===******>>>>>>===                           ",
"                      ======                                    ",
"                      ======                                    ",
"                      ======                                    ",
"                                                                ",
"                                                                ",
"                                                                ",
"                                                                ",
"                                                                ",
"                                                                ",
"                                                                ",
"                                                                ",
"                                                                "
};
