/* XPM */
static char *bcd6adc8eb7b4a20dd9852cefb2089bdxocg4mUVUYGczNzY[] = {
/* columns rows colors chars-per-pixel */
"64 64 154 2 ",
"   c None",
".  c black",
"X  c #0B0705",
"o  c #0C0907",
"O  c #16100C",
"+  c #101010",
"@  c #111111",
"#  c gray8",
"$  c #151515",
"%  c #161616",
"&  c gray9",
"*  c #1B1B1B",
"=  c gray11",
"-  c #1D1D1D",
";  c #1E1D1C",
":  c #1E1E1E",
">  c #21201F",
",  c #2C211A",
"<  c #35261F",
"1  c #202020",
"2  c gray13",
"3  c #222222",
"4  c gray14",
"5  c #252525",
"6  c gray15",
"7  c #272727",
"8  c gray16",
"9  c #2A2A2A",
"0  c #2E2A28",
"q  c #2C2C2C",
"w  c #2D2D2D",
"e  c gray18",
"r  c #2F2F2F",
"t  c #3F2C23",
"y  c #3A2C25",
"u  c #35312F",
"i  c #282F37",
"p  c #2B343F",
"a  c #313131",
"s  c #323232",
"d  c gray20",
"f  c #353535",
"g  c #373737",
"h  c #3B3532",
"j  c #3C3A37",
"k  c gray22",
"l  c #393939",
"z  c gray23",
"x  c gray24",
"c  c #3E3E3E",
"v  c #3F3F3F",
"b  c #4C3325",
"n  c #46372F",
"m  c #403D2A",
"M  c #52382A",
"N  c #583B2B",
"B  c #403F35",
"V  c #473E39",
"C  c #453F3C",
"Z  c #573E30",
"A  c #504C28",
"S  c #5C4F37",
"D  c #574138",
"F  c #614130",
"G  c #664432",
"H  c #6F4B37",
"J  c #704B37",
"K  c #754E39",
"L  c #2E3A47",
"P  c #333C45",
"I  c #33414F",
"U  c #374554",
"Y  c #394757",
"T  c #394858",
"R  c #3C4C5D",
"E  c #3D4D5F",
"W  c #3E4E5F",
"Q  c #3F4E5F",
"!  c #3F4F61",
"~  c gray25",
"^  c gray26",
"/  c gray27",
"(  c #584842",
")  c #5B4C43",
"_  c #5E4C41",
"`  c #5E5657",
"'  c #625047",
"]  c #6A544A",
"[  c #785D4F",
"{  c #765E51",
"}  c #796357",
"|  c #7A6559",
" . c #415265",
".. c #435568",
"X. c #46586C",
"o. c #495C70",
"O. c #5A626E",
"+. c #4C6075",
"@. c #4E6278",
"#. c #566574",
"$. c #586373",
"%. c #5B6973",
"&. c #5A687A",
"*. c #596A7D",
"=. c #825740",
"-. c #835841",
";. c #906953",
":. c #93715F",
">. c #A66F52",
",. c #A87154",
"<. c #826C61",
"1. c #907163",
"2. c #AB7B61",
"3. c #9E901F",
"4. c #FDE415",
"5. c #B8876C",
"6. c #AB8470",
"7. c #AB8A78",
"8. c #BB8B70",
"9. c #C08160",
"0. c #C58462",
"q. c #DE956E",
"w. c #C39175",
"e. c #C69377",
"r. c #CD987B",
"t. c #D69D7E",
"y. c #D89E7F",
"u. c #E59A72",
"i. c #C2C361",
"p. c #546B83",
"a. c #566D86",
"s. c #5A6C80",
"d. c #5B7087",
"f. c #5C738C",
"g. c #5C758F",
"h. c #617B96",
"j. c #637E9A",
"k. c #6783A0",
"l. c #6B87A5",
"z. c #6E8AA8",
"x. c #7392B2",
"c. c #7695B6",
"v. c #7B9CBE",
"b. c #B0958C",
"n. c #B4A5A5",
"m. c #DBA384",
"M. c #D4AA96",
"N. c #FBB893",
"B. c #FEBB97",
"V. c #FFBD99",
"C. c #D0B1A6",
"Z. c #EEC6B3",
"A. c #FFD2BA",
"S. c #FFDECC",
/* pixels */
"                                                                                                                                ",
"                                                                                                                                ",
"                                                                                                                                ",
"                                                                                                                                ",
"                                                                                                                                ",
"                                                                                                                                ",
"                                                                                                                                ",
"                                                                                                                                ",
"                                                                                                                                ",
"                                                : * : : : * : * : * * : * * :                                                   ",
"                                                * * * * * * * : * * * : * : :                                                   ",
"                                                * : : * * : * * : : * * * : :                                                   ",
"                                          * : 1 8 8 w g g g s g g w 8 w 8 w 8 1 : * : * * : * * : : * * * :                     ",
"                                          : : 1 z g z / / / / / / g g g g z z 1 : * * * * * : * * * * : * : :                   ",
"                                          : : 1 g g z ^ / / / / / g g g g g g 1 * * * * : : * * * : * : * * :                   ",
"                                    $ $ : 8 8 w v v v / / / / / / v v v g g g s s s s s s w s s s w s 8 : * *                   ",
"                                    $ $ 1 g g z / / / / / / / / / / / / g g g ^ / / / / / / / / / / / g * * :                   ",
"                                    $ $ 1 g g z / ^ / / / / / / / / / / z g g ^ / / / / / / / / / / / s : * *                   ",
"                                  * : : 6 g g z v v v / / / / / / c c c g g g v v v v v C v I V z s s w : *                     ",
"                            $ $ $ : 8 8 w g g g g g z / / / / / / z g g g g g g g g g g g g g g 8 : * :                         ",
"                            $ $ $ : 8 8 w g g g g g z / / / / / / g g g g g g g g g g g g g g g 8 : * *                         ",
"                            $ $ $ : 8 8 w s s C } } | <.<.<.<.<.<.} } } j s s s s s s s s w w 0 6 * :                           ",
"                            $ $ $ : 8 8 8 8 8 ' V.V.V.V.V.V.V.V.V.V.V.V.V 8 8 8 8 8 7 8 8 : $ $ $                               ",
"                            $ $ $ : 8 8 8 8 8 ' V.V.V.V.V.V.V.V.V.V.V.V.V 8 8 8 8 8 8 8 8 : $ $ $                               ",
"                            $ $ $ : 8 8 h ) ) { w.w.r.V.V.V.V.V.V.e.w.w.] ) ) u 8 8 6 4 4 = $ $                                 ",
"                            $ $ $ : 8 8 { V.V.8.. . , V.V.V.V.V.V.o . . m.V.V.) 8 8 = $ $                                       ",
"                            $ $ $ : 8 8 { V.V.8.. . , V.V.V.V.V.V.o . . m.V.V.) 8 8 : $ $                                       ",
"                              $ $ > 0 0 [ N.N.5.. . , V.V.V.V.V.V.o . . y.N.N._ 0 0 = $ $                                       ",
"                                    b b -.u.u.,.. . , V.V.V.V.V.V.o . . 0.u.u.J b b                                             ",
"                                    b b -.u.u.,.. . , V.V.V.V.V.V.o . . 0.u.u.J b b                                             ",
"                                    b b =.q.q.>.X X < B.B.B.B.B.B.O o X 9.q.q.H b b                                             ",
"                                          b b K u.u.u.u.u.u.u.u.u.u.u.u.F b b                                                   ",
"                                          b b K u.u.u.u.u.u.u.u.u.u.u.u.F b b                                                   ",
"                                          b b K u.u.u.u.u.u.u.u.u.u.u.u.F b b                                                   ",
"                                    L L  .s.d.$.N N N N N N N N N N N N &.d.d.Y L L                                             ",
"                                    L L  .g.g.$.b b b b b b b b b b b b s.g.g.T L L                                             ",
"                                    L L  .f.g.$.b b b b b b b b b b b b s.g.g.T L L                                             ",
"                              L L  .p.p.h.c.x.z.*.*.*.*.*.*.*.*.*.*.*.*.f.g.g.a.p.p.E L L                                       ",
"                            L L L ..g.g.k.v.v.x.g.g.g.g.g.g.f.h.g.g.g.g.g.g.g.g.g.g.E L L                                       ",
"                            L L L ..g.g.k.v.v.x.g.g.g.g.g.f.f.f.g.g.g.g.g.g.g.g.g.g.E L L                                       ",
"                            D D D 1.M.M.n.v.v.z.X.X.+.x.x.x.x.x.x.x.x.x.x.x.x.h.g.g.E L L                                       ",
"                            G G G 2.V.V.C.v.v.l.T  .o.v.v.v.v.v.v.v.v.v.v.v.v.j.g.g.E L L                                       ",
"                            G G G 2.V.V.C.v.v.l. .R o.v.v.v.v.v.v.v.v.v.v.v.v.j.g.g.E L L                                       ",
"                            G G G 6.A.A.Z.C.C.b.( ( ` v.v.v.v.v.v.v.v.v.v.v.v.p.o.o.U L L                                       ",
"                            G G G 7.S.S.A.V.V.t.G G ] v.v.v.v.v.v.v.v.v.v.v.v.+.E E I L L                                       ",
"                            G G G 7.S.S.A.V.V.t.G G ] v.v.v.v.v.v.v.v.v.v.v.v.+. .E I L L                                       ",
"                                  :.7.7.6.2.2.;.m B S i.i.i.i.i.i.%.#.#.#.#.#.P i i p                                           ",
"                                    G G G G G Z q q A 4.4.4.4.4.4.B g g g g g : $ $                                             ",
"                                    G G G G G N q q A 4.4.4.4.4.4.j g g g g g : & $                                             ",
"                                    G G M t t y q q h 3.3.3.3.3.3.j g g g g g : $ $                                             ",
"                                          + + * w 9 w w q q q q w j g g g g g : & $                                             ",
"                                          @ + $ w w w 9 q q q q 9 g g g g g g : $ &                                             ",
"                                          @ @ $ > > 3 4 4 4 4 4 4 s d d g s s : $ #                                             ",
"                                                @ O @ % % % % % $ w w 9 8 w w $ @ @                                             ",
"                                                @ + @ % % % % % & 9 w 9 8 w w $ + +                                             ",
"                                                @ + + % % % % % & 4 6 6 6 6 6 $ + @                                             ",
"                                                                  @ + + + + +                                                   ",
"                                                                  + + + + + @                                                   ",
"                                                                  @ + @ + @ +                                                   ",
"                                                                                                                                ",
"                                                                                                                                ",
"                                                                                                                                ",
"                                                                                                                                ",
"                                                                                                                                "
};
