/* XPM */
static char *result[] = {
/* columns rows colors chars-per-pixel */
"64 64 80 1 ",
"  c black",
". c #101010",
"X c #151515",
"o c #161616",
"O c #191919",
"+ c #1B1B1B",
"@ c gray11",
"# c #31251F",
"$ c #202020",
"% c gray13",
"& c #222222",
"* c gray14",
"= c #252525",
"- c #282828",
"; c gray16",
": c #2A2A2A",
"> c #2C2C2C",
", c gray18",
"< c #332B27",
"1 c #382A22",
"2 c #3A2C24",
"3 c #373737",
"4 c #3A3A3A",
"5 c gray24",
"6 c #403026",
"7 c #4C3325",
"8 c #4C3326",
"9 c #4F372A",
"0 c #553F33",
"q c #664432",
"w c #7F553F",
"e c #726924",
"r c #2E3A47",
"t c #3C4652",
"y c #3E4E5F",
"u c gray25",
"i c gray27",
"p c #434348",
"a c #514948",
"s c #6E584F",
"d c #7A5744",
"f c #705A4E",
"g c #4D6177",
"h c #52687F",
"j c #57697C",
"k c #746662",
"l c #8D6F5F",
"z c #926853",
"x c #996C54",
"c c #92705E",
"v c #B27858",
"b c #997460",
"n c #997765",
"m c #9C7B6A",
"M c #FDE415",
"N c #B88C74",
"B c #BC9078",
"V c #CC9577",
"C c #C1957D",
"Z c #E59A72",
"A c #EEA67F",
"S c #5C758F",
"D c #6B798B",
"F c #647A91",
"G c #66829F",
"H c #6D8BA9",
"J c #7B9CBE",
"K c #BF9886",
"L c #A89998",
"P c #A6B486",
"I c #A7A7B2",
"U c #CC9C82",
"Y c #CCAB99",
"T c #FFBD99",
"R c #D3B2A5",
"E c #E2BDAD",
"W c #FFC8AA",
"Q c #FFD3BB",
"! c #FFDECC",
"~ c None",
/* pixels */
"~~~~~~~~~~~~~~~~~~~~~~~~~~~~~~~~~~~~~~~~~~~~~~~~~~~~~~~~~~~~~~~~",
"~~~~~~~~~~~~~~~~~~~~~~~~~~~~~~~~~~~~~~~~~~~~~~~~~~~~~~~~~~~~~~~~",
"~~~~~~~~~~~~~~~~~~~~~~~~~~~~~~~~~~~~~~~~~~~~~~~~~~~~~~~~~~~~~~~~",
"~~~~~~~~~~~~~~~~~~~~~~~~~~~~~~~~~~~~~~~~~~~~~~~~~~~~~~~~~~~~~~~~",
"~~~~~~~~~~~~~~~~~~~~~~~~~~~~~~~~~~~~~~~~~~~~~~~~~~~~~~~~~~~~~~~~",
"~~~~~~~~~~~~~~~~~~~~~~~~~~~~~~~~~~~~~~~~~~~~~~~~~~~~~~~~~~~~~~~~",
"~~~~~~~~~~~~~~~~~~~~~~~~~~~~~~~~~~~~~~~~~~~~~~~~~~~~~~~~~~~~~~~~",
"~~~~~~~~~~~~~~~~~~~~~~~~~~~~~~~~~~~~~~~~~~~~~~~~~~~~~~~~~~~~~~~~",
"~~~~~~~~~~~~~~~~~~~~~~~~~~~~~~~~~~~~~~~~~~~~~~~~~~~~~~~~~~~~~~~~",
"~~~~~~~~~~~~~~~~~~~~~~~~~~~~~~~~~~~~~~~~~~~~~~~~~~~~~~~~~~~~~~~~",
"~~~~~~~~~~~~~~~~~~~~~~~~~~~~~~~~~~~~~~~~~~~~~~~~~~~~~~~~~~~~~~~~",
"~~~~~~~~~~~~~~~~~~~~~~~~~~~~~~~~~~~~~~~~~~~~~~~~~~~~~~~~~~~~~~~~",
"~~~~~~~~~~~~~~~~~~~~~~~~~~~~~~~~~~~~~~~~~~~~~~~~~~~~~~~~~~~~~~~~",
"~~~~~~~~~~~~~~~~~~~~~~~~~~~~~~~~~~~~~~~~~~~~~~~~~~~~~~~~~~~~~~~~",
"~~~~~~~~~~~~~~~~~~~~~~~~~~~~~~~~~~~~~~~~~~~~~~~~~~~~~~~~~~~~~~~~",
"~~~~~~~~~~~~~~~~~~~~~~~~~~~~~~~~~~~~~~~~~~~~~~~~~~~~~~~~~~~~~~~~",
"~~~~~~~~~~~~~~~~~~~~~~~~~~~~~~~~~~~~~~~~~~~~~~~~~~~~~~~~~~~~~~~~",
"~~~~~~~~~~~~~~~~~~~~~~~~~~~@@@@@@@@@@@@@~~~~~~~~~~~~~~~~~~~~~~~~",
"~~~~~~~~~~~~~~~~~~~~~~~~~~~@@@@@@@@@@@@@~~~~~~~~~~~~~~~~~~~~~~~~",
"~~~~~~~~~~~~~~~~~~~~~~~~~~~*==:::::=====~~~~~~~~~~~~~~~~~~~~~~~~",
"~~~~~~~~~~~~~~~~~~~~~~~~~@@,33iiiii33333@@@@@@@@@@@@@~~~~~~~~~~~",
"~~~~~~~~~~~~~~~~~~~~~~~~~@@,33iiiii33333@@@@@@@@@@@@@~~~~~~~~~~~",
"~~~~~~~~~~~~~~~~~~~~~~~X$,,4uuiiiiiuu5333333333333=@@~~~~~~~~~~~",
"~~~~~~~~~~~~~~~~~~~~~~XX%33uiiiiiiiiiu33iiiiiiiiii:@@~~~~~~~~~~~",
"~~~~~~~~~~~~~~~~~~~~~~+@=335uuiiiiiuu533uuuuuuu533-@@~~~~~~~~~~~",
"~~~~~~~~~~~~~~~~~~~~XX&;,33333iiiii333333333333,@@~~~~~~~~~~~~~~",
"~~~~~~~~~~~~~~~~~~~~XX&;,33333iiiii333333333333,@@~~~~~~~~~~~~~~",
"~~~~~~~~~~~~~~~~~~~~XX&;:,,lBBCCCCCBBl,,,,,,,=%$~~~~~~~~~~~~~~~~",
"~~~~~~~~~~~~~~~~~~~~XX&;;;;NTTTTTTTTTN;;;;;;;@XX~~~~~~~~~~~~~~~~",
"~~~~~~~~~~~~~~~~~~~~XX&;;;;NTTTTTTTTTN;;;;;;;@XX~~~~~~~~~~~~~~~~",
"~~~~~~~~~~~~~~~~~~~~XX&;fTT0  TTTTT  0TT;;&XX~~~~~~~~~~~~~~~~~~~",
"~~~~~~~~~~~~~~~~~~~~XX&;fTT0  TTTTT  0TT;;&XX~~~~~~~~~~~~~~~~~~~",
"~~~~~~~~~~~~~~~~~~~~~~26dAA9  TTTTT  9AA662~~~~~~~~~~~~~~~~~~~~~",
"~~~~~~~~~~~~~~~~~~~~~~77wZZ8  TTTTT  8ZZ777~~~~~~~~~~~~~~~~~~~~~",
"~~~~~~~~~~~~~~~~~~~~~~77wZZ8  TTTTT  8ZZ777~~~~~~~~~~~~~~~~~~~~~",
"~~~~~~~~~~~~~~~~~~~~~~~~~77vZZZZZZZZZv77~~~~~~~~~~~~~~~~~~~~~~~~",
"~~~~~~~~~~~~~~~~~~~~~~~~~77vZZZZZZZZZv77~~~~~~~~~~~~~~~~~~~~~~~~",
"~~~~~~~~~~~~~~~~~~~~~~~~paazvvvvvvvvvzaa~~~~~~~~~~~~~~~~~~~~~~~~",
"~~~~~~~~~~~~~~~~~~~~~~rrySSa777777777aSSrrr~~~~~~~~~~~~~~~~~~~~~",
"~~~~~~~~~~~~~~~~~~~~~~rrySSa777777777aSSrrr~~~~~~~~~~~~~~~~~~~~~",
"~~~~~~~~~~~~~~~~~~~~rrgSGJJGSSSSSSSSSGJJSSgrr~~~~~~~~~~~~~~~~~~~",
"~~~~~~~~~~~~~~~~~~~~rrgSGJJGSSSSSSSSSGJJSSgrr~~~~~~~~~~~~~~~~~~~",
"~~~~~~~~~~~~~~~~~~~skkDGHJJHGGGGGGGGGHJJGGDkks~~~~~~~~~~~~~~~~~~",
"~~~~~~~~~~~~~~~~~qqxTTIJJJJJJJJJJJJJJJJJJJITTxqq~~~~~~~~~~~~~~~~",
"~~~~~~~~~~~~~~~~~qqxTTIJJJJJJJJJJJJJJJJJJJITTxqq~~~~~~~~~~~~~~~~",
"~~~~~~~~~~~~~~~~~qqbQQERLhhHJJJJJJJJJHhhRREQQbqq~~~~~~~~~~~~~~~~",
"~~~~~~~~~~~~~~~~~qqn!!WTKyyGJJJJJJJJJGyyTTW!!nqq~~~~~~~~~~~~~~~~",
"~~~~~~~~~~~~~~~~~qqcYYUVmttjFFPPPPPFFjttVVUYYcq~~~~~~~~~~~~~~~~~",
"~~~~~~~~~~~~~~~~~~~~qqqq033333MMMMM33333qqqqq~~~~~~~~~~~~~~~~~~~",
"~~~~~~~~~~~~~~~~~~~~qqqq033333MMMMM33333qqqqq~~~~~~~~~~~~~~~~~~~",
"~~~~~~~~~~~~~~~~~~~~~~1#<33333eeeee33333##1~~~~~~~~~~~~~~~~~~~~~",
"~~~~~~~~~~~~~~~~~~~~~~oo%33333>>>>>33333ooo~~~~~~~~~~~~~~~~~~~~~",
"~~~~~~~~~~~~~~~~~~~~~~oo%33333>>>>>33333ooo~~~~~~~~~~~~~~~~~~~~~",
"~~~~~~~~~~~~~~~~~~~~~~..O>>>>>ooooo>>>>>...~~~~~~~~~~~~~~~~~~~~~",
"~~~~~~~~~~~~~~~~~~~~~~..O>>>>>ooooo>>>>>...~~~~~~~~~~~~~~~~~~~~~",
"~~~~~~~~~~~~~~~~~~~~~~~~oOOOOO~~~~~OOOOO~~~~~~~~~~~~~~~~~~~~~~~~",
"~~~~~~~~~~~~~~~~~~~~~~~~~.....~~~~~.....~~~~~~~~~~~~~~~~~~~~~~~~",
"~~~~~~~~~~~~~~~~~~~~~~~~~.....~~~~~.....~~~~~~~~~~~~~~~~~~~~~~~~",
"~~~~~~~~~~~~~~~~~~~~~~~~~~~~~~~~~~~~~~~~~~~~~~~~~~~~~~~~~~~~~~~~",
"~~~~~~~~~~~~~~~~~~~~~~~~~~~~~~~~~~~~~~~~~~~~~~~~~~~~~~~~~~~~~~~~",
"~~~~~~~~~~~~~~~~~~~~~~~~~~~~~~~~~~~~~~~~~~~~~~~~~~~~~~~~~~~~~~~~",
"~~~~~~~~~~~~~~~~~~~~~~~~~~~~~~~~~~~~~~~~~~~~~~~~~~~~~~~~~~~~~~~~",
"~~~~~~~~~~~~~~~~~~~~~~~~~~~~~~~~~~~~~~~~~~~~~~~~~~~~~~~~~~~~~~~~",
"~~~~~~~~~~~~~~~~~~~~~~~~~~~~~~~~~~~~~~~~~~~~~~~~~~~~~~~~~~~~~~~~"
};
