/* XPM */
static char *d2decc01f9c64918cae1d6602976e5b9p6PveALolZeE1Ij3[] = {
/* columns rows colors chars-per-pixel */
"64 64 19 1 ",
"  c None",
". c black",
"X c #101010",
"o c #151515",
"O c #161616",
"+ c gray11",
"@ c gray16",
"# c #2C2C2C",
"$ c #373737",
"% c #4C3325",
"& c #664432",
"* c #2E3A47",
"= c #3E4E5F",
"- c gray27",
"; c #E59A72",
": c #5C758F",
"> c #7B9CBE",
", c #FFBD99",
"< c #FFDECC",
/* pixels */
"                                                                ",
"                                                                ",
"                                                                ",
"                                                                ",
"                                                                ",
"                                                                ",
"                                                                ",
"                        +++++++++++++++                         ",
"                        +++++++++++++++                         ",
"                        +++++++++++++++                         ",
"         +++++++++++++++$$$------$$$$$$+++                      ",
"         +++++++++++++++$$$------$$$$$$+++                      ",
"         +++++++++++++++$$$------$$$$$$+++                      ",
"         +++---------$$$------------$$$$$$ooo                   ",
"         +++---------$$$------------$$$$$$ooo                   ",
"         +++---------$$$------------$$$$$$ooo                   ",
"            +++$$$$$$$$$$$$------$$$$$$$$$ooo                   ",
"            +++$$$$$$$$$$$$------$$$$$$$$$ooo                   ",
"            +++$$$$$$$$$$$$------$$$$$$$$$ooo                   ",
"               +++@@@&&&,,,,,,$$$$$$$$$@@@ooo                   ",
"               +++@@@&&&,,,,,,$$$$$$$$$@@@ooo                   ",
"               +++@@@&&&,,,,,,$$$$$$$$$@@@ooo                   ",
"                  +++&&&;;;...,,,$$$@@@@@@ooo                   ",
"                  +++&&&;;;...,,,$$$@@@@@@ooo                   ",
"                  +++&&&;;;...,,,$$$@@@@@@ooo                   ",
"                     %%%;;;...;;;@@@@@@@@@ooo                   ",
"                     %%%;;;...;;;@@@@@@@@@ooo                   ",
"                     %%%;;;...;;;@@@@@@@@@ooo                   ",
"                        %%%;;;;;;;;;@@@ooo                      ",
"                        %%%;;;;;;;;;@@@ooo                      ",
"                        %%%;;;;;;;;;@@@ooo                      ",
"                           %%%%%%%%%%%%                         ",
"                           %%%%%%%%%%%%                         ",
"                           %%%%%%%%%%%%                         ",
"                        ***:::>>>>>>:::***                      ",
"                        ***:::>>>>>>:::***                      ",
"                        ***:::>>>>>>:::***                      ",
"                     &&&<<<>>>>>>>>>:::===&&&                   ",
"                     &&&<<<>>>>>>>>>:::===&&&                   ",
"                     &&&<<<>>>>>>>>>:::===&&&                   ",
"                     &&&<<<,,,***>>>:::===&&&                   ",
"                     &&&<<<,,,***>>>:::===&&&                   ",
"                     &&&<<<,,,***>>>:::===&&&                   ",
"                        &&&&&&######$$$OOO                      ",
"                        &&&&&&######$$$OOO                      ",
"                        &&&&&&######$$$oOO                      ",
"                     XXX######OOo###$$$$$$XXX                   ",
"                     XXX######OOo###$$$$$$XXX                   ",
"                     XXX######OOO###$$$$$$XXX                   ",
"                     XXX######OOOOOO######XXX                   ",
"                     XXX######OOOOOO######XXX                   ",
"                     XXX######OOOOOO######XXX                   ",
"                        XXXXXX      XXXXXX                      ",
"                        XXXXXX      XXXXXX                      ",
"                        XXXXXX      XXXXXX                      ",
"                                                                ",
"                                                                ",
"                                                                ",
"                                                                ",
"                                                                ",
"                                                                ",
"                                                                ",
"                                                                ",
"                                                                "
};
