/* XPM */
static char *result[] = {
/* columns rows colors chars-per-pixel */
"64 64 20 1 ",
"  c black",
". c #101010",
"X c #151515",
"o c #161616",
"O c gray11",
"+ c gray16",
"@ c #2C2C2C",
"# c #373737",
"$ c #4C3325",
"% c #664432",
"& c #2E3A47",
"* c #3E4E5F",
"= c gray27",
"- c #FDE415",
"; c #E59A72",
": c #5C758F",
"> c #7B9CBE",
", c #FFBD99",
"< c #9AC3EE",
"1 c None",
/* pixels */
"1111111111111111111111111111111111111111111111111111111111111111",
"1111111111111111111111111111111111111111111111111111111111111111",
"1111111111111111111111111111111111111111111111111111111111111111",
"1111111111111111111111111111111111111111111111111111111111111111",
"1111111111111111111111111111111111111111111111111111111111111111",
"1111111111111111111111111111111111111111111111111111111111111111",
"1111111111111111111111111111111111111111111111111111111111111111",
"1111111111111111111111111111111111111111111111111111111111111111",
"1111111111111111111111111111111111111111111111111111111111111111",
"1111111111111111111111111111111111111111111111111111111111111111",
"1111111111111111111111111111111111111111111111111111111111111111",
"11111111111111111111111OOOOOOOOOOOOOOO11111111111111111111111111",
"11111111111111111111111OOOOOOOOOOOOOOO11111111111111111111111111",
"11111111111111111111111OOOOOOOOOOOOOOO11111111111111111111111111",
"11111111OOOOOOOOOOOOOOO###======######OOO11111111111111111111111",
"11111111OOOOOOOOOOOOOOO###======######OOO11111111111111111111111",
"11111111OOOOOOOOOOOOOOO###======######OOO11111111111111111111111",
"11111111OOO=========###============######XXX11111111111111111111",
"11111111OOO=========###============######XXX11111111111111111111",
"11111111OOO=========###============######XXX11111111111111111111",
"11111111111OOO############======#########XXX11111111111111111111",
"11111111111OOO############======#########XXX11111111111111111111",
"11111111111OOO############======#########XXX11111111111111111111",
"11111111111111OOO+++%%%,,,,,,#########+++XXX11111111111111111111",
"11111111111111OOO+++%%%,,,,,,#########+++XXX11111111111111111111",
"11111111111111OOO+++%%%,,,,,,#########+++XXX11111111111111111111",
"11111111111111111OOO%%%;;;   ,,,###++++++XXX11111111111111111111",
"11111111111111111OOO%%%;;;   ,,,###++++++XXX11111111111111111111",
"11111111111111111OOO%%%;;;   ,,,###++++++XXX11111111111111111111",
"11111111111111111111$$$;;;   ;;;+++++++++XXX11111111111111111111",
"11111111111111111111$$$;;;   ;;;+++++++++XXX11111111111111111111",
"11111111111111111111$$$;;;   ;;;+++++++++XXX11111111111111111111",
"11111111111111111111111$$$;;;;;;;;;+++XXX11111111111111111111111",
"11111111111111111111111$$$;;;;;;;;;+++XXX11111111111111111111111",
"11111111111111111111111$$$;;;;;;;;;+++XXX11111111111111111111111",
"11111111111111111111111111$$$$$$$$$$$$11111111111111111111111111",
"11111111111111111111111111$$$$$$$$$$$$11111111111111111111111111",
"11111111111111111111111111$$$$$$$$$$$$11111111111111111111111111",
"11111111111111111111111&&&:::::::::***&&&11111111111111111111111",
"11111111111111111111111&&&:::::::::***&&&11111111111111111111111",
"11111111111111111111111&&&:::::::::***&&&11111111111111111111111",
"11111111111111111111111&&&***<<<>>>***&&&11111111111111111111111",
"11111111111111111111111&&&***<<<>>>***&&&11111111111111111111111",
"11111111111111111111111&&&***<<<>>>***&&&11111111111111111111111",
"11111111111111111111111&&&***<<<,,,***&&&11111111111111111111111",
"11111111111111111111111&&&***<<<,,,***&&&11111111111111111111111",
"11111111111111111111111&&&***<<<,,,***&&&11111111111111111111111",
"11111111111111111111111---###%%%%%%@@@ooo11111111111111111111111",
"11111111111111111111111---###%%%%%%@@@ooo11111111111111111111111",
"11111111111111111111111---###%%%%%%@@@ooo11111111111111111111111",
"11111111111111111111111ooo######@@@@@@ooo11111111111111111111111",
"11111111111111111111111ooo######@@@@@@ooo11111111111111111111111",
"11111111111111111111111ooo######@@@@@@ooo11111111111111111111111",
"11111111111111111111111111ooo@@@@@@...11111111111111111111111111",
"11111111111111111111111111ooo@@@@@@...11111111111111111111111111",
"11111111111111111111111111ooo@@@@@@...11111111111111111111111111",
"11111111111111111111111111111......11111111111111111111111111111",
"11111111111111111111111111111......11111111111111111111111111111",
"11111111111111111111111111111......11111111111111111111111111111",
"1111111111111111111111111111111111111111111111111111111111111111",
"1111111111111111111111111111111111111111111111111111111111111111",
"1111111111111111111111111111111111111111111111111111111111111111",
"1111111111111111111111111111111111111111111111111111111111111111",
"1111111111111111111111111111111111111111111111111111111111111111"
};
