/* XPM */
static char *ef06f06c2e284b77de4ae3e7a71f77e8pohiGAM2WQExDdvt[] = {
/* columns rows colors chars-per-pixel */
"64 64 21 1 ",
"  c None",
". c black",
"X c #101010",
"o c #151515",
"O c #161616",
"+ c gray11",
"@ c gray16",
"# c #2C2C2C",
"$ c #373737",
"% c #4C3325",
"& c #664432",
"* c #2E3A47",
"= c #3E4E5F",
"- c gray27",
"; c #FDE415",
": c #E59A72",
"> c #5C758F",
", c #7B9CBE",
"< c #FFBD99",
"1 c #9AC3EE",
"2 c #FFDECC",
/* pixels */
"                                                                ",
"                                                                ",
"                                                                ",
"                                                                ",
"                                                                ",
"                                                                ",
"                                                                ",
"                                                                ",
"                          +++++++++++++++                       ",
"                          +++++++++++++++                       ",
"                          +++++++++++++++                       ",
"                       +++$$$$$$------$$$+++++++++++++++        ",
"                       +++$$$$$$------$$$+++++++++++++++        ",
"                       +++$$$$$$------$$$+++++++++++++++        ",
"                    ooo$$$$$$------------$$$---------+++        ",
"                    ooo$$$$$$------------$$$---------+++        ",
"                    ooo$$$$$$------------$$$---------+++        ",
"                    ooo$$$$$$$$$------$$$$$$$$$$$$+++           ",
"                    ooo$$$$$$$$$------$$$$$$$$$$$$+++           ",
"                    ooo$$$$$$$$$------$$$$$$$$$$$$+++           ",
"                    ooo@@@$$$$$$$$$<<<<<<&&&@@@+++              ",
"                    ooo@@@$$$$$$$$$<<<<<<&&&@@@+++              ",
"                    ooo@@@$$$$$$$$$<<<<<<&&&@@@+++              ",
"                    ooo@@@@@@$$$<<<...:::&&&+++                 ",
"                    ooo@@@@@@$$$<<<...:::&&&+++                 ",
"                    ooo@@@@@@$$$<<<...:::&&&+++                 ",
"                    ooo@@@@@@@@@:::...:::%%%                    ",
"                    ooo@@@@@@@@@:::...:::%%%                    ",
"                    ooo@@@@@@@@@:::...:::%%%                    ",
"                       ooo@@@:::::::::%%%                       ",
"                       ooo@@@:::::::::%%%                       ",
"                       ooo@@@:::::::::%%%                       ",
"                          %%%%%%%%%%%%                          ",
"                          %%%%%%%%%%%%                          ",
"                          %%%%%%%%%%%%                          ",
"                       ***>>>,,,,,,111***                       ",
"                       ***>>>,,,,,,111***                       ",
"                       ***>>>,,,,,,111***                       ",
"                    &&&<<<,,,111,,,,,,===&&&                    ",
"                    &&&<<<,,,111,,,,,,===&&&                    ",
"                    &&&<<<,,,111,,,,,,===&&&                    ",
"                    &&&<<<222===,,,,,,===&&&                    ",
"                    &&&<<<222===,,,,,,===&&&                    ",
"                    &&&<<<222===,,,,,,===&&&                    ",
"                       &&&&&&###$$$$$$;;;                       ",
"                       &&&&&&###$$$$$$;;;                       ",
"                       &&&&&&###$$$$$$;;;                       ",
"                    XXX######OOO###$$$$$$XXX                    ",
"                    XXX######OOO###$$$$$$XXX                    ",
"                    XXX######OOO###$$$$$$XXX                    ",
"                    XXX######OOOoOo###$$$XXX                    ",
"                    XXX######OOOOOo###$$$XXX                    ",
"                    XXX######OOOOOO###$$$XXX                    ",
"                       XXXXXX      XXXXXX                       ",
"                       XXXXXX      XXXXXX                       ",
"                       XXXXXX      XXXXXX                       ",
"                                                                ",
"                                                                ",
"                                                                ",
"                                                                ",
"                                                                ",
"                                                                ",
"                                                                ",
"                                                                "
};
