/* XPM */
static char *result[] = {
/* columns rows colors chars-per-pixel */
"64 64 222 2 ",
"   c #020203",
".  c #06080B",
"X  c #080A11",
"o  c #070D19",
"O  c #0D0F18",
"+  c #09101C",
"@  c #0B121E",
"#  c #121415",
"$  c #141718",
"%  c #10121C",
"&  c #12141F",
"*  c #16191B",
"=  c #0C1420",
"-  c #111521",
";  c #131621",
":  c #151722",
">  c #121824",
",  c #161924",
"<  c #171A25",
"1  c #131C27",
"2  c #191B24",
"3  c #1A1C27",
"4  c #141D29",
"5  c #161D2A",
"6  c #171F2A",
"7  c #161F2C",
"8  c #1B1E28",
"9  c #18202B",
"0  c #1B212B",
"q  c #1E2029",
"w  c #1D202A",
"e  c #19212D",
"r  c #19222E",
"t  c #1F222D",
"y  c #1C232E",
"u  c #1C252F",
"i  c #1B2330",
"p  c #1A2333",
"a  c #1D2430",
"s  c #1C2431",
"d  c #1C2533",
"f  c #1E2533",
"g  c #1F2735",
"h  c #21242F",
"j  c #212531",
"k  c #232630",
"l  c #202733",
"z  c #222633",
"x  c #222735",
"c  c #252832",
"v  c #262933",
"b  c #222A37",
"n  c #242935",
"m  c #262934",
"M  c #262A36",
"N  c #282A34",
"B  c #2A2C37",
"V  c #202938",
"C  c #222C39",
"Z  c #232C3A",
"A  c #222C3B",
"S  c #252C38",
"D  c #242E3B",
"F  c #242D3C",
"G  c #262D3C",
"H  c #242E3E",
"J  c #252E3F",
"K  c #272E3E",
"L  c #262F3E",
"P  c #282B38",
"I  c #292D38",
"U  c #2A2E39",
"Y  c #282D3A",
"T  c #292E3B",
"R  c #2C2F3A",
"E  c #2A2F3D",
"W  c #27313D",
"Q  c #26303F",
"!  c #27313F",
"~  c #2D303B",
"^  c #2B313E",
"/  c #2A303F",
"(  c #2E323E",
")  c #273141",
"_  c #293240",
"`  c #293242",
"'  c #2B3242",
"]  c #2D3241",
"[  c #2C3343",
"{  c #2E3342",
"}  c #2E3343",
"|  c #2B3442",
" . c #2C3441",
".. c #2A3544",
"X. c #293546",
"o. c #2B3646",
"O. c #2F3445",
"+. c #2C3748",
"@. c #2E3748",
"#. c #2F3A4C",
"$. c #303440",
"%. c #303542",
"&. c #323643",
"*. c #323645",
"=. c #313747",
"-. c #353943",
";. c #333846",
":. c #353947",
">. c #323949",
",. c #333949",
"<. c #30394A",
"1. c #373A48",
"2. c #353A4A",
"3. c #363C4B",
"4. c #343B4C",
"5. c #313C4F",
"6. c #343D4C",
"7. c #373D4D",
"8. c #373F4F",
"9. c #383B48",
"0. c #3A3C49",
"q. c #383C4A",
"w. c #3B3E4B",
"e. c #393D4C",
"r. c #383E4D",
"t. c #3A3F4F",
"y. c #353F50",
"u. c #353E51",
"i. c #383F52",
"p. c #3B404F",
"a. c #3C404D",
"s. c #3F424F",
"d. c #374356",
"f. c #384250",
"g. c #3A4053",
"h. c #3C4151",
"j. c #3D4353",
"k. c #3E4352",
"l. c #3C4355",
"z. c #3F4454",
"x. c #3F4556",
"c. c #394659",
"v. c #3A485B",
"b. c #3E495A",
"n. c #3D4A5D",
"m. c #414554",
"M. c #414656",
"N. c #434757",
"B. c #414758",
"V. c #414859",
"C. c #424859",
"Z. c #434859",
"A. c #43495B",
"S. c #444959",
"D. c #444A5A",
"F. c #454B5B",
"G. c #464A5A",
"H. c #474B5B",
"J. c #444A5C",
"K. c #404C5C",
"L. c #464C5D",
"P. c #474D5E",
"I. c #494D5D",
"U. c #484D5F",
"Y. c #4B4F5E",
"T. c #415259",
"R. c #43505F",
"E. c #404D61",
"W. c #424F63",
"Q. c #484E60",
"!. c #494E61",
"~. c #484F61",
"^. c #4A4F60",
"/. c #425263",
"(. c #455160",
"). c #455262",
"_. c #475363",
"`. c #485060",
"'. c #495062",
"]. c #4A5062",
"[. c #4B5163",
"{. c #4C5162",
"}. c #4D5262",
"|. c #4E5363",
" X c #4A5164",
".X c #4C5164",
"XX c #4D5265",
"oX c #4D5365",
"OX c #4E5367",
"+X c #485564",
"@X c #485467",
"#X c #4B5C62",
"$X c #445268",
"%X c #455469",
"&X c #47546B",
"*X c #4A5569",
"=X c #4A5768",
"-X c #4F566A",
";X c #4A576C",
":X c #4F5A6F",
">X c #505565",
",X c #53586A",
"<X c #565B6D",
"1X c #5A5F71",
"2X c #526367",
"3X c #5E6376",
"4X c #5A6E73",
"5X c #526279",
"6X c #67787F",
"7X c #586A83",
"8X c #667B88",
"9X c #6E8597",
"0X c #7C97A4",
"qX c #87A5B4",
"wX c #8EAFBC",
"eX c #92B5BF",
"rX c #96B9C4",
"tX c #99BCCA",
"yX c #9CC0CA",
"uX c #9FC2CD",
"iX c #B1DCE8",
"pX c #C4F0FA",
/* pixels */
"                                                                                                                                ",
"          # $ $ $ * * * * * * $ # # $ # # # # # # # # $ $ # # # # # # $ * * * $ # # $ * * # # $ * * * * $ $ # # # # X           ",
"      . 4XiXpXpXpXpXpXpXpXpXpXpXpXpXpXpXpXpXpXpXpXpXpXpXpXpXpXpXpXpXpXpXpXpXpXpXpXpXpXpXpXpXpXpXpXpXpXpXpXpXpXpXpXpXiX#X.       ",
"      T.wXwXwX0XyXuXiXiXqXrXrXtXrXwXwXuXyXiXwXqXwXwXwXqXeXeXeXiXpXuX0XwXeXeXwXwXqXwXeXeXeXyXwXiXrXeXeX0XeXwXeXiXiXiX0XtX8X      ",
"  4XiXwX9X9X8Xo.9X9X9X9X/.9X9X9X9X5X5X9X9X9X5X7X9X9X9X:X8X9X9X9X9X9XX.9X9X9X9X9X).9X9X9X9X9Xn.9X9X9X9X) 9X9X9X9X9X9X! 8X8X7X.   ",
"  6XpXqXE.n.d.6 n.E.E.n.) E.n.v.v.#.<.v.v.v.#.y.n.n.v.o.d.E.E.n.n.n.i n.n.v.v.v.Q n.v.v.v.c.A v.v.v.c.e W.K.n.v.v.c.7 b.b.:XX   ",
"  6XpX0X) Q H - A H H D 7 H D A A g d A F A d d A A A r V Z Z A A C > F A A A A 5 F A A A V 5 A A V g = F F A A C C - C S c..   ",
"  6XpX9X= @ @ o @ @ @ @ o @ @ @ + + + @ @ @ + + @ @ = + @ @ @ @ @ + o = @ @ @ @ + = @ @ @ + + @ @ @ + o = = @ @ @ @ o @ @ -     ",
"  6XpX0Xi r 4 o = = = = + = = = = @ + = = = @ @ = = = + @ = @ = = @ o = = @ = = + @ @ @ @ @ + @ @ @ @ o = = = = = = o > > *.    ",
"  6XpXqXd.<.g + 6 6 5 4 = 4 4 4 4 1 > 4 4 4 > > 4 1 1 = > 1 1 1 1 1 + 7 4 4 4 4 = 1 4 4 1 1 = 1 1 4 1 + 6 4 4 1 4 4 o e r _..   ",
"  6XpXqX;Xy.Z @ i i i r > d i i i 7 7 i i r 1 9 r e e > 9 y r e r e @ u i y y u > r r r e e - e r r r + a r r r e e o i p @X.   ",
"  6XpXqX:Xd.L @ y e e e > i i y i 6 6 r e 9 1 8 0 e e , 0 e e e 9 6 + y r e 9 9 ; 9 9 9 9 6 > y 0 0 9 O 9 6 6 9 9 9 + p d =X.   ",
"  6XpXqX7Xc.` o ; - - & % > ; - - % % ; - - + & ; ; - O % & & - ; & X ; - & - - O & & & - & O & ; ; ; X & & & & - & X d d W.    ",
"  6XpXwX8Xn.o.: =.' ' / z O.} [ [ G Y O.} [ x ] O.O.} j P ^ E ^ ^ E % ;.] ] ' ^ t %.{ ] ' ] w ] ] ' / % O./ K K G F @ d d ;X.   ",
"  6XpXqX7XW.<.< j.r.8.r.P t.7.7.7.} *.g.i.7.Y 9.h.p.t.P %.1.2.7.4.2.& z.r.7.7.7.M t.e.7.7.r.v r.r.7.3.; t.2.,.,.=.} = d s ;X    ",
"  6XpXqX8X&X4.3 C.x.x.z.E x.x.x.x.,.:.B.x.j.E s.B.B.M.^ w.k.k.k.h.j.; I.z.z.z.m.( M.z.z.z.m.R S.B.z.j.: C.j.h.h.r.=.= i i :X    ",
"  6XpXqX8X&X4.3 G.k.h.p.T j.j.p.t.%.9.h.p.7.M s.z.k.k.R 0.h.p.e.e.q.& H.a.p.h.a.R k.h.p.p.h.U z.k.a.r.: A.h.h.t.2.=.& s i :X.   ",
"  6XpXwX8X&Xy.O B N B v 2 ( ~ R ~ h : w t h : 8 h k k 2 c ~ ~ ~ B c X c v v m k O , , 2 3 2 O 8 8 q q O m j j k h q o i i ;X.   ",
"  6XpXqX7X$Xu.w <X[.{.>Xs..X[.].!.k.G.OXoXXXe.<XOX}.{.a.L.I.Y.Y.F.L.: 3XoX.XXX>Xw.<X<X,X,X,Xa.,X>X}.^.8 3XXX[.].Q.l.: i s *X.   ",
"  6XpXqX8X&Xu.w ,X].].>Xa..X[.].!.h.G..X].Q.2.>X{.^.^.U.}.^.I.U.P.L.: <X^.].].{.9.OXXX[.^.}.w..X].^.Q.8 3X.X].!.P.8.; i d  X.   ",
"  8XpXqX8X&Xg.h ,X].^.XXa.OX[.].!.t.G.XX].Q.;.}.^.^.^.^.^.^.I.U.P.L.: <X].^.].^.0..X[.[.].{.0.XX].^.U.8 1X X].Q.P.8.- i d g.    ",
"  8XpXqX7X&Xg.h {.J.D.P.a.!.P.L.A.2.M.L.D.V.] Y.D.D.D.S.D.F.F.S.M.x.: ,XL.L.F.G.:.L.L.L.F.F.q.Q.U.L.S.3 ,XL.J.A.B.4.& i d :X    ",
"  4XiX0X7X%Xi.O 3 , , , ; < < , , % ; : : ; O 2 < , < , , , : ; & & X 8 , : : : & , , : : ; % : , : : X 3 , , : : - X i s <X    ",
"  2XeX9X8X&Xg.< 3X<X<X<Xm.1X1X1X,XS.S.<X<X<Xh.>X<X,X,X,Xh 3X<X<X-XOX: 3X,X,X,X,X:.,X,X<X<X<Xw.<X,X,X,Xw 3X<X<X,X,XJ.> i s <X    ",
"  8XpXqX8X&Xg.0 <XoX[.>Xm.XX[.!.U.h.G.OX].!.q.|.}.Y.I.I.h <X{.^.Q.L., <X^.U.Q.{.w.{.^.^.^.{.s.{.^.^.!.t 1X].^.!.!.8.; s s -X    ",
"  8XpXqX7X$Xi.t ,X[.'.oXh.XX].!.U.t.S.XX[.].q.}.{.I.I.H.t ,X{.].Q.L.< <X].U.^.{.q.{.].^.^.}.s.{.^.^.Q.t 1X^.^.^.U.7.- s f -X    ",
"  6XpXqX7X%Xi.t .XD.C.D.e.U.L.F.C.:.m.U.P.D.$.Y.H.N.M.m.3 |.F.L.F.M., -XF.D.D.I.1.D.D.D.S.L.w.H.F.G.G.w ,XP.F.S.B.;.& s a -X    ",
"  6XpX9Xf 6 ; X ; & & ; % : ; & % O & ; & % O : & & % % X : & & ; & X < ; ; ; & O ; & & ; & O & % & & X : & % % % % X s s -X    ",
"  6XpXwX7X6X:XI 3X1X1X3XN.3X3X1X1XI.I.1X<X<XM.<X1X1X<X<Xh 6X1X1X1X1X8 6X1X1X1X1Xm.1X1X3X3X3X0.1X1X1X1Xz 6X3X1X,X,XL.: i y -X    ",
"  6XpXqX:X5Xx.I ,X.X].oXw.}.Y.I.H.a.S.{.Y.I.1.}.{.U.L.G.w 1X].`.^.^.2 1X!.`.P.I.s.{.{.[.[.|.0.^.^.^.^.t 1XXX].U.L.,.- y e -X    ",
"  6XpX9X- - % X & % % % O ; & % % O % & % % O % % % % % X & % % % % X & O % % % O & % % % % O % % % % X & % % % % O X y y :X    ",
"  6XpX0X@.' G % =.] ] ] j { { { ] T c } { ] z E ] ] } } : } ] ] / Y O &.^ ^ ^ ^ t { { ] ] { h ] ( ( ] % *.] ^ ^ ^ / % y i :X    ",
"  6XpXqX_.y. .< A.g.g.h.~ z.j.j.j.2.&.x.j.h.] k.x.l.l.l.8 M.z.l.g.8.; U.l.g.g.8.( M.z.l.g.t.R M.z.j.j., J.z.g.g.i.7.& i y :X    ",
"  6XpXqX:Xl.=.8 [.A.B.x.( S.Z.Z.C.r.e.U.F.B.=.G.L.A.V.B.w I.A.Z.C.M., OXA.V.B.x.$.U.L.A.B.m.( H.F.D.C.< XXA.B.x.l.t.& i y :X    ",
"  6XpX0XW.<.G : 2.%.^ ( B :.*.&.&.P $.3.,.*.M 0.:.;.&.&.: s.3.2.:.;.& k.;.O.{ ] c 2.;.&.] E c :.;.*.{ % m.2.;.*.] T O s a :X    ",
"  6XpXqX&X5.` < .X!.Q.].T S.S.J.S.1.&.h.N.S.$.a.m.M.m.m.2 t.h.t.e.q.% ,X{.{.{.^.I |.}.^.I.G.P S.S.Z.N.: U.C.z.h.2.( O i s :X    ",
"  6XpXqX7X$Xu.j OXU.U.-Xe.].].!.U.h.S.[.Q.U.:.>X{.].[.[.t ,XXX.X.X X: <X^.U.U.^.9.[.].].].XX9.^.^.^.U.2 1X^.Q.~.Q.3.& i a -X    ",
"  6XpXqX8X$Xy.k OX'.'.oXq..X].].!.h.N.[.!.U.;.>X^.^.!.!.t ,X.X[.[.]., 1X[.].!.^.-..X].].].|.1.[.].^.U., 1X].'.'.Q.3.& i i -X    ",
"  6XpXqX7X$Xy.k OX'.'.].q.XX X'.!.p.M.[.!.U.;.}.^.!.!.Q.t >X[.].'.Q., 1X[.].'.{.:.'.!.!.!.{.:.^.Q.U.P.: <X'.~.~.L.r.- y y -X    ",
"  6XpXqX7X$Xy.t ^.S.C.N.1.A.B.x.z.;.N.G.N.m.$.Y.N.M.x.x.8 Y.J.Z.M.x.& ,XG.C.x.m.&.M.x.z.j.z.;.S.M.z.j.; |.M.x.j.p.3.& y i -X    ",
"  6XpXqX7X$Xy.% m v N k : z k c v 2 2 R ~ ~ q N $.$.$.( : $.-.&.$.$.O ( ~ ~ ~ B , B ~ ~ R B 2 ~ R R R O ~ U B I B m O a y -X    ",
"  6XpXwX8X%Xu.M -X[..X,Xw.OX.X X'.j.G..X[.[.t.>XXX[.].U.h 1X}.^.U.U.: 1X].].^.{.1.XX[.^.^.}.w.[.].!.U.3 1X{.].].^.8.> i y 4.    ",
"  6XpXwX8X%Xy.I XX].].>Xq..X].~.~.k.S.XX.X].e.|.XX[.].L.t <X}.^.U.U.< 1X[.].'.Y.:.OX.X[.[.}.-.[.].].Q.3 1X{.].!.Q.4.- y a :X    ",
"  6XpXqX7X$Xl.I .X'.`.{.q.[.!.Q.Q.j.N..X'.~.7.}.[.^.U.J.w ,X}.^.U.U.< 1X[.!.`.I.1.OX.X[.[.|.:.[.].].[.3 1X[.].^.`.2.- y a :X    ",
"  2XuX9X;Xd.@.w *.{ %.&.c ] ^ E T n U T Y P t $.E T Y M % $.~ E U U O e.( ^ Y M v $.~ T T R k T T E ^ % 1.E S S n j O y y :X    ",
"  2XyX9X:Xd.` 8 -X.X[.|.%.{.oXoXoXk.e.}.}.^.q.G.{.}.|.>X( }.}.{.{.{.: 3X,X>XoX|.~ }.}.|.oX>X( |.|.}.^.2 3X>X|.{.^.z.- y y :X    ",
"  8XpXqX7X&Xi.m -X{.].>Xa.{.^.^.].k.M.{.^.^.w.>X}.{.]..Xx.-X].^.!.U., 1X.X^.U.^.a.XX}.}.{.}.0.}.{.{.{.w 3X].^.!.U.g.> e y E.    ",
"  8XpXqX8X&X8.P -X[.!.|.h.|.Y.^.].k.m.}.{.^.q.Y.{.^.^.].].].].].!.P., 3XOX{.U.I.w.XX{.}.].}.0.}.[.[.].8 1X[.Q.U.U.4.> i s W.    ",
"  8XpXqX7X$Xy.P OX^.Q.[.p.|.{.^.].j.M.|.[.^.1.I.^.^.^.^.^.^.].!.U.L., 3XOX.X!.I.:.XX{.{.^.{.0.{.].^.P.3 1X].U.J.F.>.; i s ;X.   ",
"  8XpXqX7X$Xy.< n z h t w j j h h 8 h z z z 3 M z j h t w t t t t t O I x j t w 8 k j j t t 8 c k j t O P j h a t y O i s n.    ",
"  8XpXqX7X$Xi.0 <X>XOX,X&.{.^.{.{.m.q.P.^.].q.N.}.Y.I.:.H.{.}.}.>X>X: 1XoX{.{.|.&.-X>X}.^.Y.( ^.{.[.^.8 1X>X>X}.[.C.- i i 5X    ",
"  8XpXqX9X$Xi.c -X'.~.oXr..X].!.^.k.S.'.'.'.t.^.oX].Q.:.|.{.[.].].Q.: 1X[.].!.].1..XXXXX'..Xe.oX[.!.U.t 1X].].].Q.8.- y e :X    ",
"  8XpXqX7XW.y.c -X].`.[.t.oX].].^.k.N..X X'.r.Y.oX].Q.:.}.{.[.].~.P.: 1XXX[.].].q.{.{..X'.[.r.>X].P.L.t 1X{.[.].'.7.- y y :X    ",
"  8XpX9Xy.O.n 2 &.^ U P M { ^ ^ U k ^ ( E T t $.^ ^ ^ t ( ( ^ E E E % w.$.( T I v $.( ( ( ( v %.( ~ U : a.$. . .^ n O , , 6.    ",
"  8XpX0X:X;X_.0 :X-X,X,X@.=X+X).R.f.8.[.`.(.8.V._.(.W.6.K.+X_.).).R.> :X_.).(.(.| @X_._.).(.E =X+X).R.e ;X@X@X$XW.n.1 c.d.;X.   ",
"  8XpX0X......& ! D D Z f H Z b g y M Z b b y D F F Z i / _ L D D D - @.! L D C y L Z C C C y | _ _ W > [ K Q ) J H - K G y..   ",
"  8XpXqX8X7X:Xb 7X5X5X5X#.5X5X5X7X;XE.7X5X7Xn.$X5X7X7XE.;X7X7X7X5X5X7 7X5X5X5X5X#.5X5X5X5X5X5.5X5X5X5Xg 7X7X5X5X5X;Xr 5X5X7XX   ",
"  8XpX0Xn.v.#.e n.v.c.v.J v.v.c.d.5.+.v.v.v.#.5.c.c.c.X.y.b.c.c.c.d.> E.v.c.c.c.F c.d.d.c.v.F d.d.d.d.5 v.v.c.d.d.y.1 u.d.:XX   ",
"  9XpX9XF V g - V g d s 1 x f f i r 5 i p d r i d d p 5 y g g g d d @ g g g d d > a s s s d > d d d s @ f g g g d s + f f l..   ",
"  9XpX6Xo o o X o o o o o o o o o o o + + o o o + o o o X + o o o o X o o o o o o o o o o o o o o o o X o o o o o o X o o &     ",
"  9XpX9Xl 9 9 + 6 4 4 5 - 6 7 7 4 1 > 9 6 7 1 e 7 7 4 4 X e 9 7 5 4 o i 7 7 4 7 - 5 5 4 4 5 > 7 5 4 1 + i 7 7 7 4 4 o r p @X.   ",
"  9XiX9Xb s r @ s y r e > d d d p 7 1 a y y 5 r u i r r o d u u i r O g a i r r > i i i i i > i i e 6 o g f s s r r + p p &X.   ",
"  * k * X X X . . . . . . . . . . . . . . . . . X . . .   . . . . .   . . . . . . . . . X . . . . . . . X X X X X . . . . O     ",
"                                                                                                                                "
};
